icons/grocery-11.svg

<?xml version="1.0" encoding="UTF-8" standalone="no"?>
<!-- Created with Inkscape (http://www.inkscape.org/) -->

<svg
   xmlns:dc="http://purl.org/dc/elements/1.1/"
   xmlns:cc="http://creativecommons.org/ns#"
   xmlns:rdf="http://www.w3.org/1999/02/22-rdf-syntax-ns#"
   xmlns:svg="http://www.w3.org/2000/svg"
   xmlns="http://www.w3.org/2000/svg"
   xmlns:sodipodi="http://sodipodi.sourceforge.net/DTD/sodipodi-0.dtd"
   xmlns:inkscape="http://www.inkscape.org/namespaces/inkscape"
   version="1.1"
   width="11"
   height="11"
   id="svg4764"
   inkscape:version="0.91 r13725"
   sodipodi:docname="grocery-11.svg"
   viewBox="0 0 11 11">
  <sodipodi:namedview
     pagecolor="#ffffff"
     bordercolor="#666666"
     borderopacity="1"
     objecttolerance="10"
     gridtolerance="10"
     guidetolerance="10"
     inkscape:pageopacity="0"
     inkscape:pageshadow="2"
     inkscape:window-width="1755"
     inkscape:window-height="816"
     id="namedview3392"
     inkscape:document-units="px"
     showgrid="true"
     inkscape:zoom="32"
     inkscape:cx="2.2944982"
     inkscape:cy="3.4492145"
     inkscape:window-x="0"
     inkscape:window-y="23"
     inkscape:window-maximized="0"
     inkscape:current-layer="svg4764"
     inkscape:snap-bbox="true"
     inkscape:bbox-paths="true"
     inkscape:bbox-nodes="true"
     inkscape:snap-bbox-edge-midpoints="true"
     inkscape:object-paths="true"
     inkscape:snap-intersection-paths="true"
     inkscape:object-nodes="true"
     inkscape:snap-smooth-nodes="true"
     showguides="true"
     inkscape:guide-bbox="true">
    <inkscape:grid
       type="xygrid"
       id="grid3333"
       spacingx="0.5"
       spacingy="0.5"
       color="#ff0000"
       opacity="0.1254902"
       empspacing="2" />
  </sodipodi:namedview>
  <defs
     id="defs4766" />
  <metadata
     id="metadata4769">
    <rdf:RDF>
      <cc:Work
         rdf:about="">
        <dc:format>image/svg+xml</dc:format>
        <dc:type
           rdf:resource="http://purl.org/dc/dcmitype/StillImage" />
        <dc:title></dc:title>
      </cc:Work>
    </rdf:RDF>
  </metadata>
  <path
     style="fill:#000000;fill-opacity:1"
     d="M 9.75 1.5 C 9.7464061 1.4999302 9.4323514 1.4941902 9.1191406 1.6875 C 8.804147 1.8819101 8.5 2.3013439 8.5 3 L 8.2539062 3 L 1 3 L 1.75 6.5 C 1.8571429 7 2.5 7 2.5 7 L 8.5 7 C 8.5 7 8.4973257 7.2466447 8.3476562 7.4960938 C 8.197987 7.7455428 7.9305556 8 7.25 8 L 2 8 C 1.6619193 7.9952187 1.6619193 8.5047813 2 8.5 L 3.25 8.5 L 7.25 8.5 C 8.0694444 8.5 8.552013 8.1294572 8.7773438 7.7539062 C 9.0026743 7.3783553 9 7 9 7 L 9 3 C 9 2.4330311 9.195853 2.2274649 9.3808594 2.1132812 C 9.5658657 1.9990978 9.7460938 2 9.7460938 2 C 9.7473938 2.0000102 9.74869 2.0000102 9.75 2 L 10.25 2 C 10.588081 2.00478 10.588081 1.4952187 10.25 1.5 L 9.7539062 1.5 L 9.75 1.5 z M 7.25 8.5 A 0.75 0.75 0 0 0 6.5 9.25 A 0.75 0.75 0 0 0 7.25 10 A 0.75 0.75 0 0 0 8 9.25 A 0.75 0.75 0 0 0 7.25 8.5 z M 3.25 8.5 A 0.75 0.75 0 0 0 2.5 9.25 A 0.75 0.75 0 0 0 3.25 10 A 0.75 0.75 0 0 0 4 9.25 A 0.75 0.75 0 0 0 3.25 8.5 z "
     id="rect7842-7" />
</svg>

<?xml version="1.0" encoding="utf-8"?>
<!-- Generator: Adobe Illustrator 19.2.1, SVG Export Plug-In . SVG Version: 6.00 Build 0)  -->
<!DOCTYPE svg PUBLIC "-//W3C//DTD SVG 1.1//EN" "http://www.w3.org/Graphics/SVG/1.1/DTD/svg11.dtd">
<svg version="1.1"
	 id="svg4764" inkscape:version="0.91 r13725" sodipodi:docname="grocery-11.svg" xmlns:cc="http://creativecommons.org/ns#" xmlns:dc="http://purl.org/dc/elements/1.1/" xmlns:inkscape="http://www.inkscape.org/namespaces/inkscape" xmlns:rdf="http://www.w3.org/1999/02/22-rdf-syntax-ns#" xmlns:sodipodi="http://sodipodi.sourceforge.net/DTD/sodipodi-0.dtd" xmlns:svg="http://www.w3.org/2000/svg"
	 xmlns="http://www.w3.org/2000/svg" xmlns:xlink="http://www.w3.org/1999/xlink" x="0px" y="0px" width="11px" height="11px"
	 viewBox="0 0 11 11" style="enable-background:new 0 0 11 11;" xml:space="preserve">
<path id="rect7842-7" d="M9.75,1.5C9.7464,1.4999,9.4324,1.4942,9.1191,1.6875C8.8041,1.8819,8.5,2.3013,8.5,3H8.2539H1l0.75,3.5
	C1.8571,7,2.5,7,2.5,7h6c0,0-0.0027,0.2466-0.1523,0.4961S7.9306,8,7.25,8H2C1.6619,7.9952,1.6619,8.5048,2,8.5h1.25h4
	c0.8194,0,1.302-0.3705,1.5273-0.7461C9.0027,7.3784,9,7,9,7V3c0-0.567,0.1959-0.7725,0.3809-0.8867
	C9.5659,1.9991,9.7461,2,9.7461,2C9.7474,2,9.7487,2,9.75,2h0.5c0.3381,0.0048,0.3381-0.5048,0-0.5H9.7539H9.75z M7.25,8.5
	C6.8358,8.5,6.5,8.8358,6.5,9.25S6.8358,10,7.25,10S8,9.6642,8,9.25S7.6642,8.5,7.25,8.5z M3.25,8.5C2.8358,8.5,2.5,8.8358,2.5,9.25
	S2.8358,10,3.25,10S4,9.6642,4,9.25S3.6642,8.5,3.25,8.5z"/>
</svg>
